X: 155
T:Dillon Brown's Fancy
M:4/4
L:1/8
S:Kevin Burke and Jackie Daly
R:reel
D:Kevin Burke: If the Cap Fits.
Z:Barney
K:A
cB|:AFEF A2 ce|fece f2 af|ec (3ccc acec|fcec B2 cB|
AFEF A2 ce|fece f2 af|ec (3ccc acec|1BABc A2 cB:|2 BABc A4||
ceAc eAce|BE ~E2 BcdB|cAAG Acec|BE ~E2 BcdB|
AccB cedc|BE ~E2 BcdB|ABce fgaf|eccA BdcB||
AFEF A2 ce|fece f2 af|ec (3ccc acec|fcec B2 cB|
AFEF A2 ce|fece f2 af|ec (3ccc acec|1BABc A2 cB:|2 BABc A4||
ceAc eAce|BE ~E2 BcdB|cAAG Acec|BE ~E2 BcdB|
AccB cedc|BE ~E2 BcdB|ABce fgaf|eccA BdcB||A8
